X:1
T:Are You Ready for the Judgment Day?
T:Are You Ready for the Judgment Day?
T:Haldor Lillenas
T:Haldor Lillenas, 1917
T:Public Domain Courtesy of the Cyber Hymnal™
T:Public Domain Courtesy of the Cyber Hymnal™
C:Haldor Lillenas
Z:Public Domain
Z:Courtesy of the Cyber Hymnal™
%%score ( 1 2 ) ( 3 4 )
L:1/8
Q:1/4=99
M:4/4
K:Eb
V:1 treble 
V:2 treble 
V:3 bass 
V:4 bass 
V:1
 _E[_E=F] | [_E=G]2 [_E=G]2 [_E=G]>[_E=F] _E>[_E=G] | [=G_B]2 [_A_B]2 [=G_B]2 _E[_E=F] | %3
w: 1.~Have you|found re- demp- tion thro’ the|Son of God? Are you|
w: 2.~You have|long re- fused your bless- èd|Lord to own; Are you|
w: 3.~How shall|you es- cape the bur- den|of your guilt? Are you|
w: 4.~Will you|trust the Sav- ior to for-|give your sin? Are you|
 [_E=G]>[_E=G] [_E=G]>[_E=G] [_E_B]2 [_E=G]2 | [=D=F]6 _E[_E=F] | %5
w: rea- dy for the judg- ment|day? Are you|
w: rea- dy for the judg- ment|day? What will|
w: rea- dy for the judg- ment|day? If you|
w: rea- dy for the judg- ment|day? He can|
 [_E=G]2 [_E=G]2 [_E=G]>[_E=F] _E>[_E=G] | [=G_B]2 [=G_B]2 !fermata![_A=c]2 [_A_e][_A_e] | %7
w: shel- tered un- der- neath the|pre- cious blood? Are you|
w: be your fate be- fore the|great white throne? Are you|
w: scorn the blood that for your|sin was spilt, Are you|
w: save, no mat- ter what your|life has been; Are you|
 [=G_B]>[=G_B] [=G_B]>_E [_E=G]2 [=D=F]2 | _E6 ||"^Refrain" [=G_B][=G_B] | %10
w: rea- dy for the judg- ment|day?||
w: rea- dy for the judg- ment|day?|Are you|
w: rea- dy for the judg- ment|day?||
w: rea- dy for the judg- ment|day?||
 [=G_e]>[=G_e] [_A_e]>[_A_e] [=G_e]2 [_A=c]2 | _B6 [=G_B][=G_B] | %12
w: ||
w: rea- dy for the judg- ment|day? Are you|
w: ||
w: ||
 [=G_e]>[=G_e] [_A_e]>[_A_e] [=G_e]2 [_A=c]2 | =d6 [_A_B][_A_B] | %14
w: ||
w: rea- dy for the judg- ment|day? When you|
w: ||
w: ||
 [=G_e]>[=G_e] [=G_e]>[=G_e] [=G=d]2 =G=G | [_E=c]>[_E=c] [_E=c]>[_E=c] [_E_B]2 [=G_e][=G_e] | %16
w: ||
w: stand be- fore the throne, Will His|blood for you a- tone? Are you|
w: ||
w: ||
 [=G_B]>[=G_B] [=G_B]>_E [_E=G]2 [=D=F]2 | _E6 |] %18
w: ||
w: rea- dy for the judg- ment|day?|
w: ||
w: ||
V:2
 _E x | x6 _E3/2 x/ | x6 _E x | x8 | x6 _E x | x6 _E3/2 x/ | x8 | x7/2 _E/ x4 | _E6 || x2 | x8 | %11
 (=G2 _A2 _B2) x2 | x8 | (_A2 _A2 _A2) x2 | x6 =G=G | x8 | x7/2 _E/ x4 | _E6 |] %18
V:3
 [E,G,][E,A,] | [E,B,]2 [E,B,]2 [E,B,]>[E,A,] [E,G,]>[E,B,] | [E,E]2 [F,D]2 [E,E]2 [E,G,][E,A,] | %3
w: ~ ~|~ ~ ~ ~ ~ ~|~ ~ ~ ~ ~|
 [E,B,]>[E,B,] [E,B,]>[E,B,] [E,G,]2 [E,B,]2 | [B,,B,]6 [E,G,][E,A,] | %5
w: ~ ~ ~ ~ ~ ~|~ ~ ~|
 [E,B,]2 [E,B,]2 [E,B,]>[E,A,] [E,G,]>[E,B,] | [E,E]2 [E,E]2 !fermata![A,,E]2 [A,,C][A,,C] | %7
w: ~ ~ ~ ~ ~ ~|~ ~ ~ ~ ~|
 [B,,E]>[B,,E] [B,,B,]>[B,,G,] [B,,B,]2 [B,,A,]2 | [E,G,]6 || [E,B,][E,B,] | %10
w: ~ ~ ~ ~ ~ ~|~|~ ~|
 [E,B,]>[E,B,] [E,C]>[E,C] [E,B,]2 [E,E]2 | [E,E]2 [F,D]2 [G,E]2 [E,E][E,E] | %12
w: ~ ~ ~ ~ ~ ~|judg- ment day? ~ ~|
 [E,B,]>[E,B,] [E,C]>[E,C] [E,B,]2 [E,B,]2 | [F,B,]2 [F,B,]2 [B,,B,]2 [D,B,][D,B,] | %14
w: ~ ~ ~ ~ ~ ~|judg- ment day? * *|
 [E,B,]>[E,B,] [C,C]>[C,C] =B,2 [E,B,][D,B,] | [C,C]>[C,C] A,>A, [G,B,]2 [E,B,][E,B,] | %16
w: ||
 [E,E]>[E,E] [E,B,]>[E,G,] [B,,B,]2 [B,,A,]2 | [E,G,]6 |] %18
w: ||
V:4
 x2 | x8 | x8 | x8 | x8 | x8 | x8 | x8 | x6 || x2 | x8 | x8 | x8 | x8 | x4 (G,F,) x2 | %15
 x2 A,>A, x4 | x8 | x6 |] %18

